theme/black/state-sync.svg

<svg width="16" height="16" version="1.1" viewBox="0 0 4.2333 4.2333" xmlns="http://www.w3.org/2000/svg"><path transform="scale(.26458)" d="m8 1a7 7 0 0 0-7 7 7 7 0 0 0 7 7 7 7 0 0 0 7-7 7 7 0 0 0-7-7zm0 1a6 6 0 0 1 6 6 6 6 0 0 1-6 6 6 6 0 0 1-6-6 6 6 0 0 1 6-6zm0.0019531 2.252c-1.3387-1.47e-5 -2.5787 0.71561-3.248 1.875a0.62505 0.62505 0 1 0 1.0781 0.62695c0.44706-0.77437 1.2758-1.2461 2.1699-1.2461 0.79042-8.4e-6 1.5081 0.38319 1.9766 1.0039a0.75005 0.75005 0 1 0 0.0019532 1.498h1.4902a0.75005 0.75005 0 0 0 0.74609-0.74609v-1.4902a0.75005 0.75005 0 0 0-0.75977-0.76172 0.75005 0.75005 0 0 0-0.68555 0.47461c-0.7027-0.77272-1.7016-1.2344-2.7695-1.2344zm-1.9082 3.7637a0.75005 0.75005 0 0 0-0.025391 0.0019531h-1.4922a0.75005 0.75005 0 0 0-0.072266 0 0.75005 0.75005 0 0 0-0.67188 0.74414v1.4922a0.75005 0.75005 0 0 0 1.4453 0.31055c0.70011 0.74162 1.6805 1.1797 2.7246 1.1797 1.3387 2.1e-5 2.5787-0.71562 3.248-1.875a0.62505 0.62505 0 1 0-1.0859-0.61914c-0.44706 0.77436-1.268 1.2481-2.1621 1.248-0.78026 1.2e-5 -1.4943-0.37608-1.9648-0.98242h0.03125a0.75005 0.75005 0 1 0 0.025391-1.5z" stroke-width=".82894"/></svg>

<?xml version="1.0" encoding="UTF-8" standalone="no"?>
<!DOCTYPE svg PUBLIC "-//W3C//DTD SVG 1.1//EN" "http://www.w3.org/Graphics/SVG/1.1/DTD/svg11.dtd">
<svg width="100%" height="100%" viewBox="0 0 16 16"
    xmlns="http://www.w3.org/2000/svg" version="1.1">
    <path d="M8,1C4.16,1 1,4.16 1,8C1,11.84 4.16,15 8,15C11.84,15 15,11.84 15,8C15,4.16 11.84,1 8,1ZM8,2C11.291,2 14,4.708 14,8C14,11.291 11.291,14 8,14C4.708,14 2,11.291 2,8C2,4.708 4.708,2 8,2ZM8.002,4.252C6.663,4.252 5.423,4.968 4.754,6.127C4.684,6.23 4.646,6.353 4.646,6.478C4.646,6.82 4.928,7.103 5.271,7.103C5.509,7.103 5.727,6.967 5.832,6.754C6.279,5.98 7.108,5.508 8.002,5.508C8.792,5.508 9.51,5.891 9.979,6.512C9.966,6.511 9.953,6.511 9.94,6.511C9.528,6.511 9.19,6.849 9.19,7.261C9.19,7.672 9.528,8.011 9.94,8.011C9.953,8.011 9.967,8.01 9.98,8.01L11.471,8.01C11.879,8.008 12.215,7.672 12.217,7.264L12.217,5.773C12.217,5.77 12.217,5.766 12.217,5.762C12.217,5.35 11.878,5.012 11.467,5.012C11.464,5.012 11.46,5.012 11.457,5.012C11.154,5.017 10.883,5.205 10.771,5.486C10.069,4.714 9.07,4.252 8.002,4.252L8.002,4.252ZM6.094,8.016C6.085,8.016 6.077,8.017 6.068,8.018L4.576,8.018C4.552,8.016 4.528,8.016 4.504,8.018C4.125,8.057 3.833,8.38 3.832,8.762L3.832,10.254C3.832,10.264 3.831,10.274 3.831,10.285C3.831,10.696 4.17,11.035 4.581,11.035C4.887,11.035 5.163,10.848 5.277,10.564C5.977,11.306 6.958,11.744 8.002,11.744C9.341,11.744 10.581,11.029 11.25,9.869C11.306,9.773 11.336,9.664 11.336,9.553C11.336,9.21 11.054,8.928 10.711,8.928C10.484,8.928 10.274,9.052 10.164,9.25C9.717,10.024 8.896,10.498 8.002,10.498C7.222,10.498 6.508,10.122 6.037,9.516L6.068,9.516C6.073,9.516 6.077,9.516 6.081,9.516C6.493,9.516 6.831,9.177 6.831,8.766C6.831,8.359 6.5,8.023 6.094,8.016L6.094,8.016Z" style="fill-rule:nonzero;"/>
</svg>
